svgs/sharp-light/file-contract.svg

<svg xmlns="http://www.w3.org/2000/svg" viewBox="0 0 384 512"><!--! Font Awesome Pro 6.6.0 by @fontawesome - https://fontawesome.com License - https://fontawesome.com/license (Commercial License) Copyright 2024 Fonticons, Inc. --><path d="M352 480L32 480 32 32l160 0 0 144 0 16 16 0 144 0 0 288zM224 37.3L346.7 160 224 160l0-122.7zM232 0L32 0 0 0 0 32 0 480l0 32 32 0 320 0 32 0 0-32 0-328L232 0zM80 64L64 64l0 32 16 0 64 0 16 0 0-32-16 0L80 64zm0 64l-16 0 0 32 16 0 64 0 16 0 0-32-16 0-64 0zm56 176l-11.9 0-3.4 11.4L100.1 384 80 384l-16 0 0 32 16 0 32 0 11.9 0 3.4-11.4L144 349l16.7 55.6 3.4 11.4 11.9 0 8 0 9.9 0 4.4-8.8L209.9 384l4.2 0 11.6 23.2 4.4 8.8 9.9 0 64 0 16 0 0-32-16 0-54.1 0-11.6-23.2-4.4-8.8-9.9 0-24 0-9.9 0-4.4 8.8-3 5.9-15.4-51.4L163.9 304 152 304l-16 0z"/></svg>

<svg xmlns="http://www.w3.org/2000/svg" viewBox="0 0 384 512"><!--! Font Awesome Pro 6.4.0 by @fontawesome - https://fontawesome.com License - https://fontawesome.com/license (Commercial License) Copyright 2023 Fonticons, Inc. --><path d="M352 480H32V32H192V176v16h16H352V480zM224 37.3L346.7 160H224V37.3zM232 0H32 0V32 480v32H32 352h32V480 152L232 0zM80 64H64V96H80h64 16V64H144 80zm0 64H64v32H80h64 16V128H144 80zm56 176H124.1l-3.4 11.4L100.1 384H80 64v32H80h32 11.9l3.4-11.4L144 349l16.7 55.6 3.4 11.4H176h8 9.9l4.4-8.8L209.9 384h4.2l11.6 23.2 4.4 8.8H240h64 16V384H304 249.9l-11.6-23.2-4.4-8.8H224 200h-9.9l-4.4 8.8-3 5.9-15.4-51.4L163.9 304H152 136z"/></svg>
